wp/wp-content/themes/tcs-responsive/i/nav/track-data.svg

<?xml version="1.0" encoding="UTF-8" standalone="no"?>
<svg width="32px" height="32px" viewBox="0 0 32 32" version="1.1" xmlns="http://www.w3.org/2000/svg" xmlns:xlink="http://www.w3.org/1999/xlink" xmlns:sketch="http://www.bohemiancoding.com/sketch/ns">
    <!-- Generator: Sketch 3.3.3 (12081) - http://www.bohemiancoding.com/sketch -->
    <title>nav/track-data</title>
    <desc>Created with Sketch.</desc>
    <defs></defs>
    <g id="Page-1" stroke="none" stroke-width="1" fill="none" fill-rule="evenodd" sketch:type="MSPage">
        <g id="nav/track-data" sketch:type="MSArtboardGroup" stroke="#F6F6F6" stroke-width="1.2" stroke-linecap="round" stroke-linejoin="round">
            <path d="M9.4878,3.857143 C9.4878,2.279286 10.754605,1 12.317068,1 C13.879532,1 15.146337,2.279286 15.146337,3.857143 C15.146337,5.435 13.879532,6.714286 12.317068,6.714286 C10.754605,6.714286 9.4878,5.435 9.4878,3.857143 L9.4878,3.857143 L9.4878,3.857143 Z" id="Stroke-43" sketch:type="MSShapeGroup"></path>
            <path d="M24.3415,9.571443 C24.3415,7.993586 25.608305,6.7143 27.170768,6.7143 C28.733232,6.7143 30.000037,7.993586 30.000037,9.571443 C30.000037,11.1493 28.733232,12.428586 27.170768,12.428586 C25.608305,12.428586 24.3415,11.1493 24.3415,9.571443 L24.3415,9.571443 L24.3415,9.571443 Z" id="Stroke-45" sketch:type="MSShapeGroup"></path>
            <path d="M1,19.214843 C1,17.636986 2.266805,16.3577 3.829268,16.3577 C5.391732,16.3577 6.658537,17.636986 6.658537,19.214843 C6.658537,20.7927 5.391732,22.071986 3.829268,22.071986 C2.266805,22.071986 1,20.7927 1,19.214843 L1,19.214843 L1,19.214843 Z" id="Stroke-47" sketch:type="MSShapeGroup"></path>
            <path d="M13.024,27.786243 C13.024,26.208386 14.290805,24.9291 15.853268,24.9291 C17.415732,24.9291 18.682537,26.208386 18.682537,27.786243 C18.682537,29.3641 17.415732,30.643386 15.853268,30.643386 C14.290805,30.643386 13.024,29.3641 13.024,27.786243 L13.024,27.786243 L13.024,27.786243 Z" id="Stroke-49" sketch:type="MSShapeGroup"></path>
            <path d="M24.3415,22.072043 C24.3415,20.494186 25.608305,19.2149 27.170768,19.2149 C28.733232,19.2149 30.000037,20.494186 30.000037,22.072043 C30.000037,23.6499 28.733232,24.929186 27.170768,24.929186 C25.608305,24.929186 24.3415,23.6499 24.3415,22.072043 L24.3415,22.072043 L24.3415,22.072043 Z" id="Stroke-51" sketch:type="MSShapeGroup"></path>
            <path d="M5.5976,16.267557 L11.079307,6.6247" id="Stroke-53" sketch:type="MSShapeGroup"></path>
            <path d="M27.0823171,19.124671 L27.0823171,12.6961" id="Stroke-55" sketch:type="MSShapeGroup"></path>
            <path d="M15.676868,24.83896 L12.8476,7.0711" id="Stroke-57" sketch:type="MSShapeGroup"></path>
            <path d="M25.04877,20.0175 L14.3506,6.2675" id="Stroke-59" sketch:type="MSShapeGroup"></path>
            <path d="M18.7713,26.803271 L24.606666,23.4997" id="Stroke-61" sketch:type="MSShapeGroup"></path>
            <path d="M6.9238,18.231843 L24.60673,10.9997" id="Stroke-63" sketch:type="MSShapeGroup"></path>
        </g>
    </g>
</svg>

<svg xmlns="http://www.w3.org/2000/svg" width="32" height="32" viewBox="0 0 32 32"><path d="M9.488 3.857C9.488 2.28 10.755 1 12.318 1c1.562 0 2.828 1.28 2.828 2.857 0 1.578-1.266 2.857-2.829 2.857-1.562 0-2.83-1.279-2.83-2.857zm14.854 5.714c0-1.577 1.266-2.857 2.829-2.857 1.562 0 2.829 1.28 2.829 2.857 0 1.578-1.267 2.858-2.83 2.858-1.562 0-2.829-1.28-2.829-2.858zM1 19.215c0-1.578 1.267-2.857 2.83-2.857 1.562 0 2.829 1.279 2.829 2.857 0 1.578-1.267 2.857-2.83 2.857-1.562 0-2.829-1.28-2.829-2.857zm12.024 8.571c0-1.578 1.267-2.857 2.83-2.857 1.562 0 2.829 1.28 2.829 2.857 0 1.578-1.267 2.857-2.83 2.857-1.562 0-2.829-1.279-2.829-2.857zm11.318-5.714c0-1.578 1.266-2.857 2.829-2.857 1.562 0 2.829 1.28 2.829 2.857 0 1.578-1.267 2.857-2.83 2.857-1.562 0-2.829-1.28-2.829-2.857zM5.598 16.268l5.481-9.643M27 19.125v-6.429M15.677 24.84l-2.83-17.768M25.05 20.017L14.35 6.267m4.42 20.536l5.836-3.303M6.924 18.232L24.607 11" fill="none" fill-rule="evenodd" stroke="#FFF" stroke-width="2" stroke-linecap="round" stroke-linejoin="round"/></svg>
